markets/ARB.svg

<svg width="42" height="42" viewBox="0 0 42 42" fill="none" xmlns="http://www.w3.org/2000/svg">
<circle cx="21" cy="21" r="21" fill="#2D374B"/>
<path d="M25.089 19.4943L27.7327 15.0086L34.8586 26.1073L34.8619 28.2366L34.8386 13.5799C34.8303 13.4031 34.7795 13.2309 34.6907 13.0778C34.6018 12.9247 34.4774 12.7953 34.328 12.7004L21.4989 5.32136C21.3456 5.24853 21.1779 5.21113 21.0082 5.21193C20.8386 5.21273 20.6712 5.25171 20.5186 5.32597C20.479 5.34582 20.4407 5.36801 20.4037 5.39242L20.3591 5.42064L7.90602 12.6368L7.85753 12.6586C7.79299 12.6885 7.7314 12.7244 7.67359 12.7658C7.44004 12.9326 7.28088 13.184 7.23002 13.4665C7.22223 13.5093 7.21692 13.5526 7.21411 13.596L7.23361 25.5398L13.871 15.2523C14.7066 13.8882 16.5273 13.4488 18.2174 13.4726L20.201 13.5239L8.51275 32.2683L9.89067 33.0615L21.719 13.5427L26.9472 13.5237L15.1494 33.5343L20.0663 36.364L20.6538 36.7019C20.9073 36.8026 21.1886 36.8082 21.4458 36.7176L34.4553 29.1784L31.9668 30.6197L25.089 19.4943ZM26.0978 34.0218L21.132 26.2281L24.1631 21.0846L30.6846 31.3634L26.0978 34.0218Z" fill="#2D374B"/>
<path d="M21.1324 26.228L26.0982 34.0214L30.6852 31.363L24.1641 21.0845L21.1324 26.228Z" fill="#28A0F0"/>
<path d="M34.8625 28.2369L34.8591 26.1075L27.7333 15.0088L25.088 19.494L31.9671 30.6194L34.4556 29.1781C34.576 29.0805 34.6746 28.9585 34.7447 28.8202C34.8149 28.6819 34.8551 28.5303 34.8627 28.3754L34.8625 28.2369Z" fill="#28A0F0"/>
<path d="M5.00171 30.2456L8.5141 32.2695L20.2024 13.5251L18.2187 13.4738C16.5286 13.45 14.7079 13.8892 13.8723 15.2535L7.23495 25.541L5.00299 28.9718V30.2466L5.00171 30.2456Z" fill="white"/>
<path d="M26.9475 13.5249L21.7196 13.5439L9.89124 33.0627L14.0255 35.4432L15.1497 33.5363L26.9475 13.5249Z" fill="white"/>
<path d="M37.065 13.4979C37.0411 12.9583 36.8863 12.4327 36.614 11.9664C36.3417 11.5 35.96 11.1068 35.5019 10.8208L22.5047 3.34657C22.0407 3.11856 21.5306 3 21.0137 3C20.4967 3 19.9866 3.11856 19.5226 3.34657C19.4141 3.40121 6.88305 10.6689 6.88305 10.6689C6.70895 10.7525 6.54242 10.8511 6.38535 10.9634C5.97846 11.2528 5.64243 11.6306 5.40249 12.0684C5.16255 12.5063 5.02494 12.9928 5 13.4915V28.971L7.23196 25.5402L7.21477 13.5969C7.22521 13.4332 7.27184 13.2738 7.35129 13.1302C7.43074 12.9867 7.54104 12.8625 7.67424 12.7667C7.73325 12.7244 20.4782 5.34712 20.5188 5.32685C20.6714 5.25259 20.8387 5.21361 21.0084 5.21281C21.1781 5.21201 21.3458 5.24941 21.4991 5.32224L34.3282 12.7018C34.4776 12.7967 34.602 12.9261 34.6908 13.0792C34.7797 13.2323 34.8304 13.4045 34.8387 13.5813V28.3768C34.8356 28.5302 34.7998 28.6812 34.7337 28.8196C34.6675 28.9581 34.5726 29.0808 34.4552 29.1796L31.9667 30.6208L30.684 31.3648L26.0969 34.0232L21.4449 36.7192C21.1877 36.81 20.9064 36.8044 20.653 36.7036L15.1493 33.538L14.0251 35.4447L18.9713 38.2924C19.135 38.3852 19.2807 38.4678 19.4002 38.5351C19.5855 38.6377 19.7117 38.7082 19.7561 38.7298C20.1699 38.9111 20.6173 39.0032 21.0691 38.9999C21.4834 39.0005 21.8942 38.9232 22.28 38.7721L35.7915 30.9474C36.1727 30.6509 36.4843 30.2744 36.7042 29.8445C36.9242 29.4145 37.0471 28.9415 37.0645 28.4589L37.065 13.4979Z" fill="#96BEDC"/>
</svg>

<svg xmlns="http://www.w3.org/2000/svg" width="42" height="42" fill="none"><circle cx="21" cy="21" r="21" fill="#2D374B"/><path fill="#2D374B" d="m25.089 19.494 2.644-4.485 7.126 11.098.003 2.13-.023-14.657a1.104 1.104 0 0 0-.511-.88l-12.83-7.379a1.131 1.131 0 0 0-1.094.071l-.045.029-12.453 7.216-.048.022a1.1 1.1 0 0 0-.643.937l.019 11.944 6.637-10.288c.836-1.364 2.656-1.803 4.346-1.78l1.984.052L8.513 32.268l1.378.794 11.828-19.52 5.228-.018-11.798 20.01 4.917 2.83.588.338c.253.1.535.106.792.016l13.01-7.54-2.49 1.442-6.877-11.126Zm1.009 14.528-4.966-7.794 3.031-5.143 6.522 10.278-4.587 2.659Z"/><path fill="#28A0F0" d="m21.132 26.228 4.966 7.793 4.587-2.658-6.52-10.279-3.033 5.144ZM34.862 28.237l-.003-2.13-7.126-11.098-2.645 4.485 6.88 11.125 2.488-1.44a1.103 1.103 0 0 0 .407-.804v-.138Z"/><path fill="#fff" d="m5.002 30.246 3.512 2.024 11.688-18.745-1.983-.051c-1.69-.024-3.511.415-4.347 1.78L7.235 25.54l-2.232 3.43v1.276l-.001-.001ZM26.948 13.525l-5.228.019L9.89 33.063l4.134 2.38 1.125-1.907 11.798-20.011Z"/><path fill="#96BEDC" d="M37.065 13.498a3.33 3.33 0 0 0-1.563-2.677L22.505 3.347a3.38 3.38 0 0 0-2.982 0c-.109.054-12.64 7.322-12.64 7.322a3.347 3.347 0 0 0-1.48 1.4c-.24.437-.378.924-.403 1.422v15.48l2.232-3.43-.017-11.944a1.11 1.11 0 0 1 .46-.83c.058-.043 12.803-7.42 12.844-7.44a1.131 1.131 0 0 1 .98-.005l12.83 7.38a1.102 1.102 0 0 1 .51.88v14.795a1.078 1.078 0 0 1-.384.803l-2.488 1.44-1.283.745-4.587 2.658-4.652 2.696c-.257.091-.539.085-.792-.015l-5.504-3.166-1.124 1.907 4.946 2.847.43.243c.184.103.31.173.355.195.414.181.861.273 1.313.27.414 0 .825-.077 1.211-.228l13.511-7.825a3.303 3.303 0 0 0 1.274-2.488V13.498Z"/></svg>
